!!!OTL-incipit: ALS DIE JUDN DEN HERRN CHRISTUM GEFANGN GENOMMN GEHABT
!!!ARE: Europa, Mitteleuropa, Deutschland, Bayern
!!!SCT: Z0151
!!!TXL: @@DE
!!!YEM: Copyright 1995, estate of Helmut Schaffrath.
**kern	**text
*ICvox	*
*M6/8	*
*k[b-]	*
*F:	*
!LO:TX:a:t=Baieriſch.	!
{16c	Als
16c	die
=1	=1
8f	Jud'n
8f	den
16f	Herrn
16f	Chriſtum
8a	.
8g	ge-
16f	-fang'n
16f	ge-
=2	=2
16e	-nomm'n
16g	ge-
4c	-habt,
4r}	.
{8c	da
=3	=3
8f	lie-
8f	-fen
8f	die
8a	Jün-
8g	-ger
8f	da-
=4	=4
4cc	-von,
8r	.
4r}	.
{8a	den
=5	=5
8b-/	Pe-
8b-/	-terl
8b-/	den
8dd	hab'ns
8cc	noch
8b-	beim
=6	=6
16a	Mant'l
16cc	er-
4f	-tappt,
4r}	.
{8a	wart,
=7	=7
8g	Glatʒ-
8a	-kopf,
8b-/	jetʒt
8c	hab'n
8d	wir
8e	dich
=8	=8
4f	ſchon.
8r	.
4r}	.
==	==
!!!AGN: Erzaehlung, lustige Romanze
!!!ONB: ESAC (Essen Associative Code) Database: ZUCCAL
!!!AMT: compound duple
!!!AIN: vox
!!!EED: Helmut Schaffrath
!!!EEV: 1.0
!!!GTL: II. Erzahlungen, lustige Romanzen, Kinder-Lieder und episch-lyrische Volks-Lieder.
!!!URL-scan: https://www.digitale-sammlungen.de/de/view/bsb11160571?page=286
!!!ENC: Anna Maria Matuszewska
!!!EEV: 2025/01/28
*-	*-
